X:1
T: Donegall Boys' Reel
C:
R:Reel
Q: 232
K:Em
M:4/4
L:1/8
dc BA GF EF|G2 BG dG Be|dc BA GF ED|Be e^d ef ge|
dc BA GF EF|G2 BG dG Be|dc BA GF EF|Be e^d e2 ef|
|:g2 gf gb ag|fd ad bd ad|g2 gf gb ag|fg af g2 d2|
g2 gf gb ag|fd ad bd ad|gf ef gf ed|Be ed ef ge:|
dc BA GF EF|G2 BG dG Be|dc BA GF ED|Be e^d ef ge|
dc BA GF EF|G2 BG dG Be|dc BA GF EF|Be e^d e2 e2||
